X:19
T: Kentucky Waltz  (Bill Monroe 1911-1996    arranged by Bob Alessio) %% X:70 WJ 2012?
M: 3/4
L: 1/8
K: D
                                                             (3DFA |\
"D"d3   c  B2  |       A4      DE  |   F(G F4)    | "D"z2 z2 (3ABc |\
   d4      cB  |       A4      F2  |"A"E6         |    z2 z2   A2  |
"A"c4      cB  |       A4      GF  |   E4-   (EF) |    E4      CB, |\
"A"(A,2 C2 E2) |       A2 c2 (3BcB |"D"A6         |    z2 z2 (3ABc |
"D"d3    c B2  |       A4      DE  |   FG  F4     |    z2 z2   d2  |\
"D"f4      f2  |   "D7"e4      d2  |"G"B6-        |    B2 z2   Bc  |
"G"d3   d ^cd  | "Gdim"e4      de  |"D"f2  fe  dB |"B7"A4     ^GA  |\
"E7"B3 _B =Bc  |   "A7"^c2 f2  fe  |"D"d6         |    z4          |]
% %%stretchlast

